X: 11908
T: Emmet The Piper
R: jig
M: 6/8
K: Dmajor
cAF d3|cAF E3|A3 A3|ABc AFE|
cAF def|edc Bcd|eab g2 e|1 fed efd:|2 fed ecA||
def a3|abf afd|Adf g3|fed edB|
def a3|abf afa|geg fdf|efd ceA:|
d z f BfB|Adf gfe|d z f BfB|AdA dBA|
d z f BfB|Adf gfe|fga baf|gfe fdB:|

